packages/katcn/src/icons/svg/speaker-solid.svg

<svg width="24" height="24" viewBox="0 0 24 24" fill="none" xmlns="http://www.w3.org/2000/svg">
<path d="M17.3459 2.31075C16.373 1.81355 15.3027 1.91299 14.3297 2.60907L13.2595 3.60348C12.0919 4.59789 10.7297 5.19453 9.17297 5.19453H5.67027C4.40541 5.19453 3.23784 5.69173 2.26486 6.68614C1.48649 7.58111 1 8.87383 1 10.1666C1 12.5531 2.65405 14.542 4.79459 15.0392V19.1162C4.79459 20.7073 6.05946 22 7.51892 22C9.07568 22 10.2432 20.7073 10.2432 19.1162V15.238C11.4108 15.4369 12.4811 15.9341 13.3568 16.7296L14.5243 17.7241C15.4 18.3207 16.4703 18.4201 17.4432 17.9229C18.4162 17.4257 19 16.3319 19 15.238V4.99565C19 3.80236 18.4162 2.80796 17.3459 2.31075Z" fill="black"/>
<path d="M23 8C23 7.4 22.5 7 22 7C21.4 7 21 7.5 21 8V12C21 12.6 21.5 13 22 13C22.6 13 23 12.5 23 12V8Z" fill="black"/>
</svg>

<svg xmlns="http://www.w3.org/2000/svg" fill="none" viewBox="0 0 24 24"><path fill="#000" d="M17.346 2.31c-.973-.496-2.043-.397-3.016.3l-1.07.993c-1.168.995-2.53 1.592-4.087 1.592H5.67c-1.265 0-2.432.497-3.405 1.491C1.486 7.581 1 8.874 1 10.166c0 2.387 1.654 4.376 3.795 4.873v4.077C4.795 20.707 6.059 22 7.519 22c1.557 0 2.724-1.293 2.724-2.884v-3.878c1.168.199 2.238.696 3.114 1.492l1.167.994c.876.597 1.946.696 2.92.199.972-.497 1.556-1.591 1.556-2.685V4.996c0-1.194-.584-2.188-1.654-2.685M23 8c0-.6-.5-1-1-1-.6 0-1 .5-1 1v4c0 .6.5 1 1 1 .6 0 1-.5 1-1z"/></svg>
